X:1
T: The Marquis of Huntly's Highland Fling
C:G. Jenkins
R:Strathspey
Q: 128
K:D
M:4/4
L:1/16
|:A2|dd3 f3d g3e f3d|Be3 e3d cA3 A3c|dd3 f3d g3e f3d|B3e dcBA d4 d2A2|
dd3 f3d g3e f3d|Be3 e3d cA3 A3c|dd3 f3d g3e f3d|B3e dcBA d4 d2B2|
A3D FED2 A3B d3f|g3e fd3 e3d Bd3|AD3 FED2 A3B db3|af3 e3f d4 d2B2|
A3D FED2 A3B d3f|g3e fd3 e3d Bd3|AD3 FED2 A3B db3|af3 e3f d4 d2:|
